X: 46
T:Ecko Dance. GS.046
M:6/8
L:1/8
Q:110
S:George Spencer m/s, Leeds,1831
R:Quadrille
O:England
A:Leeds
H:1831
Z:vmp.Cherri Graebe
K:F major
c | c=Bc AFc | cBc= BGc | c=Bc ^c2d | G2A AFc | c=Bc AFB |! c=Bc BFc | c
=Bc dBG |
 EFG F2 || c | "qu"f2 f fef | a2ge2c |! "qu"d2e ede | gfe f2c | f2f fef
|
a2ge2c | e2e ede | gfe f2 ||
